round/svg/border_style.svg

<svg xmlns="http://www.w3.org/2000/svg" width="24" height="24"><path fill="none" d="M0 0h24v24H0V0z"/><g fill="currentColor"><path d="M15 21h2v-2h-2v2zm4 0h2v-2h-2v2zM7 21h2v-2H7v2zm4 0h2v-2h-2v2zm8-4h2v-2h-2v2zm0-4h2v-2h-2v2zM3 5v15c0 .55.45 1 1 1s1-.45 1-1V6c0-.55.45-1 1-1h14c.55 0 1-.45 1-1s-.45-1-1-1H5c-1.1 0-2 .9-2 2zm16 4h2V7h-2v2z"/></g></svg>

<?xml version="1.0" encoding="utf-8"?>
<!-- Generator: Adobe Illustrator 19.1.0, SVG Export Plug-In . SVG Version: 6.00 Build 0)  -->
<svg version="1.1" xmlns="http://www.w3.org/2000/svg" xmlns:xlink="http://www.w3.org/1999/xlink" x="0px" y="0px" width="24px"
	 height="24px" viewBox="0 0 24 24" enable-background="new 0 0 24 24" xml:space="preserve">
<g id="Bounding_Boxes">
	<g id="ui_x5F_spec_x5F_header_copy_3">
	</g>
	<path fill="none" d="M0,0h24v24H0V0z"/>
</g>
<g id="Rounded" fill="currentColor">
	<g id="ui_x5F_spec_x5F_header_copy_6">
	</g>
	<path d="M15,21h2v-2h-2V21z M19,21h2v-2h-2V21z M7,21h2v-2H7V21z M11,21h2v-2h-2V21z M19,17h2v-2h-2V17z M19,13h2v-2h-2V13z M3,5
		v15c0,0.55,0.45,1,1,1h0c0.55,0,1-0.45,1-1V6c0-0.55,0.45-1,1-1h14c0.55,0,1-0.45,1-1v0c0-0.55-0.45-1-1-1H5C3.9,3,3,3.9,3,5z
		 M19,9h2V7h-2V9z"/>
</g>
</svg>
